src/assets/icons/Suggestions.svg

<svg width="48" height="48" viewBox="0 0 48 48" fill="none" xmlns="http://www.w3.org/2000/svg">
<path d="M24 46L18 40H9C8.2 40 7.5 39.6917 6.9 39.075C6.3 38.4583 6 37.7667 6 37V7C6 6.2 6.3 5.5 6.9 4.9C7.5 4.3 8.2 4 9 4H39C39.7667 4 40.4583 4.3 41.075 4.9C41.6917 5.5 42 6.2 42 7V37C42 37.7667 41.6917 38.4583 41.075 39.075C40.4583 39.6917 39.7667 40 39 40H30L24 46ZM9 37H19.2L24 41.8L28.8 37H39V7H9V37ZM9 7V37V7ZM26.85 24.95L33.25 22.15L26.85 19.35L24.05 12.95L21.2 19.35L14.85 22.15L21.2 24.95L24.05 31.35L26.85 24.95Z" fill="#E0E0E0"/>
</svg>

<svg xmlns="http://www.w3.org/2000/svg" height="48" width="48"><path d="m24 46-6-6H9q-1.2 0-2.1-.925Q6 38.15 6 37V7q0-1.2.9-2.1Q7.8 4 9 4h30q1.15 0 2.075.9Q42 5.8 42 7v30q0 1.15-.925 2.075Q40.15 40 39 40h-9ZM9 37h10.2l4.8 4.8 4.8-4.8H39V7H9v30ZM9 7v30V7Zm17.85 17.95 6.4-2.8-6.4-2.8-2.8-6.4-2.85 6.4-6.35 2.8 6.35 2.8 2.85 6.4Z"/></svg>
